X: 659
T: Hotfoot
C:Benny Thomasson
B: jims roots
M:C|
L:1/8
Q: 1/4=100
K:C
V:1 
ef|| "C"gage ag^fa | gedg edcG | "F"ABcA dcAG | "C"[G2c][G2c]- [G2c]ef |
"1"gc'ge ag^fa | gbgf edcG | "D7"A[d2g][dg] [d2g][e2g] | "G7"[d6g] ef |
gage ag^fa | gedg edcG | "F"Ac2c dcdJ^d | "E7"e6 e2- |
"F"ea2b "F#"ag^fe | "C"gbag edcG | "G7"EGce- eB d2 | "C"c6 |]
% abcbook-tune_id 6298c25dd1928ccbd6db3585


% abcbook-boost 0
% abcbook-tablature 
% abcbook-transpose 
% abcbook-lastupdated 1654178398890
% abcbook-soundfonts 
% abcbook-repeats 1


